X:14
T:Alice
C:Telemann
N:Introduction to Concerto for oboe d'amore and strings in A.
N:Counter-melody by Colin Hume, plus extra chords - Telemann played it faster.
N:For the dance by Philippe Callens
%%MIDI beat 100 95 80
S:Colin Hume's website,  colinhume.com  - chords can also be printed below the stave.
Q:1/4=116
M:3/4
R:Waltz
L:1/8
K:A
P:A
V:1 name=Tune
%%MIDI program 68     Oboe
%%MIDI bassprog 32    Acoustic Bass
%%MIDI chordprog 45   Pizzicato Strings
%%stretchstaff 0
%%MIDI gchord bcb
|: "Bm"AB | "A"c3 d e2 | "Bm"d3 c "E"B2 | "A"c4 A2 | "/"A4 :|
V:2 name=Counter-melody
%%MIDI program 73       % Flute
|: F2 | A4 A2 | F4 G2 | A4 E2 | C4 :|
P:B
V:1
"D"f2 | "A/C#"e4- "Bm"e2- | "A"e2 fg "D"af | "A/C#"e4- "Bm"e2- | "A"e2 fg aA | "Bm"d3 e d2 | "Bm"d4 "/A"d2 |
"E/G#"b4 "/F#"g2 | "E"e4 d2 | "A"c3 B "D"d2 | "A/E"c3 d "E"B2 | "A"A4- "D"A2 | "A"A,4 |]
V:2
A2 | A4 d2 | c4 B2 | A4 d2 | c4 A2 | F4 F2 | F2G2A2 |
G2A2B2 | G2A2B2 | A2G2F2 | E2F2G2 | A6- | A4 |]

